static/asset/fontsize-large.svg

<?xml version="1.0" encoding="UTF-8"?>
<svg width="39px" height="23px" viewBox="0 0 39 23" version="1.1" xmlns="http://www.w3.org/2000/svg" xmlns:xlink="http://www.w3.org/1999/xlink">
    <!-- Generator: Sketch 41.2 (35397) - http://www.bohemiancoding.com/sketch -->
    <title>L</title>
    <desc>Created with Sketch.</desc>
    <defs></defs>
    <g id="Page-1" stroke="none" stroke-width="1" fill="none" fill-rule="evenodd">
        <g id="FONTSIZE_2" transform="translate(-65.000000, -10.000000)" fill="#7F7F7F">
            <g id="L" transform="translate(65.000000, 10.000000)">
                <path d="M32.6143123,14.7398761 C32.7017247,14.4180805 32.7750628,14.088021 32.8335343,13.7500158 L36.7503064,13.7500158 C37.4406623,13.7500158 38.0003064,13.1903717 38.0003064,12.5000158 C38.0003064,11.8096598 37.4406623,11.2500158 36.7503064,11.2500158 L33.0050889,11.2500158 C33.0121668,10.4560445 33.0111912,9.86386708 33.0049629,9.45485204 C33.0030343,9.32819691 33.001018,9.24698893 32.9994855,9.20472243 C32.9744707,8.51481984 32.3949156,7.97582182 31.705013,8.00083664 C31.0151104,8.02585147 30.4761124,8.60540654 30.5011272,9.29530913 C30.5019954,9.31925377 30.5035803,9.38308555 30.5052527,9.49291624 C30.5111896,9.88279928 30.5121051,10.45845 30.5050564,11.2500158 L26.7503064,11.2500158 C26.0599504,11.2500158 25.5003064,11.8096598 25.5003064,12.5000158 C25.5003064,13.1903717 26.0599504,13.7500158 26.7503064,13.7500158 L30.2802915,13.7500158 C29.6917245,16.3191382 27.9733393,18.2128855 25.7337575,19.2292043 C25.1051038,19.5144863 24.8267461,20.2553776 25.1120282,20.8840313 C25.3973102,21.512685 26.1382015,21.7910427 26.7668552,21.5057607 C28.7963845,20.5847634 30.5082178,19.0940894 31.6214167,17.1465729 L36.8157158,21.2969962 C37.3550472,21.7279405 38.1416111,21.6400754 38.5725554,21.100744 C39.0034996,20.5614126 38.9156345,19.7748488 38.3763031,19.3439045 L32.6143123,14.7398761 Z" id="Lf"></path>
                <rect id="Ls" x="0" y="0" width="23" height="23" rx="2"></rect>
            </g>
        </g>
    </g>
</svg>

<svg width="39" height="23" xmlns="http://www.w3.org/2000/svg"><g fill="#7F7F7F" fill-rule="evenodd"><path d="M32.614 14.74c.088-.322.161-.652.22-.99h3.916a1.25 1.25 0 0 0 0-2.5h-3.745A78.485 78.485 0 0 0 33 9.205a1.25 1.25 0 1 0-2.498.09 77.191 77.191 0 0 1 .004 1.955H26.75a1.25 1.25 0 1 0 0 2.5h3.53c-.588 2.57-2.307 4.463-4.546 5.48a1.25 1.25 0 1 0 1.033 2.276c2.03-.921 3.741-2.412 4.854-4.36l5.195 4.151a1.25 1.25 0 0 0 1.56-1.953l-5.762-4.604z"/><rect width="23" height="23" rx="2"/></g></svg>
